X: 1
T:Scotch Jenny [2]. JJo.028
B:J.Johnson Choice Collection Vol 8 1758
Z:vmp.Simon Wilson 2013 www.village-music-project.org.uk
M:C|
L:1/8
Q:1/2=80
K:G
|:d|(B/c/d) BG gded|gfed Tc3B|c/d/e2d cBAG|FAcBA3:|
|:A|F/G/A2B (AF)(dA)|B(G G)A/B/Tc3A|(B/c/d) (e/f/g)d2(cB)|(cA)(dB)G3:|

